assets/img/ps.svg

<svg xmlns="http://www.w3.org/2000/svg" xmlns:xlink="http://www.w3.org/1999/xlink" width="60" height="60" viewBox="0 0 60 60">
  <defs>
    <path id="ps-a" d="M21.15,16.875 C24.9250189,16.875 27.8187399,17.5624931 29.83125,18.9375 C31.8437601,20.3125069 32.85,22.4624854 32.85,25.3875 C32.85,26.9125076 32.5812527,28.2187446 32.04375,29.30625 C31.5062473,30.3937554 30.7250051,31.2812466 29.7,31.96875 C28.6749949,32.6562534 27.4250074,33.1624984 25.95,33.4875 C24.4749926,33.8125016 22.7875095,33.975 20.8875,33.975 L18.525,33.975 L18.525,43.125 L13.8,43.125 L13.8,17.5125 C14.9000055,17.2624987 16.1187433,17.0937504 17.45625,17.00625 C18.7937567,16.9187496 20.0249944,16.875 21.15,16.875 Z M21.4875,20.9625 C20.287494,20.9625 19.3000039,20.9999996 18.525,21.075 L18.525,29.925 L20.8125,29.925 C23.0875114,29.925 24.8374939,29.6062532 26.0625,28.96875 C27.2875061,28.3312468 27.9,27.1250089 27.9,25.35 C27.9,24.4999957 27.7375016,23.7875029 27.4125,23.2125 C27.0874984,22.6374971 26.6375029,22.1875016 26.0625,21.8625 C25.4874971,21.5374984 24.8062539,21.3062507 24.01875,21.16875 C23.2312461,21.0312493 22.3875045,20.9625 21.4875,20.9625 Z M40.9125,39.8625 C42.112506,39.8625 42.9874973,39.7187514 43.5375,39.43125 C44.0875028,39.1437486 44.3625,38.6500035 44.3625,37.95 C44.3625,37.2999967 44.0687529,36.7625021 43.48125,36.3375 C42.8937471,35.9124979 41.9250068,35.4500025 40.575,34.95 C39.7499959,34.6499985 38.9937534,34.3312517 38.30625,33.99375 C37.6187466,33.6562483 37.0250025,33.2625023 36.525,32.8125 C36.0249975,32.3624977 35.6312514,31.8187532 35.34375,31.18125 C35.0562486,30.5437468 34.9125,29.7625046 34.9125,28.8375 C34.9125,27.037491 35.5749934,25.6187552 36.9,24.58125 C38.2250066,23.5437448 40.0249886,23.025 42.3,23.025 C43.4500058,23.025 44.5499948,23.1312489 45.6,23.34375 C46.6500053,23.5562511 47.4374974,23.762499 47.9625,23.9625 L47.1375,27.6375 C46.6374975,27.4124989 46.0000039,27.2062509 45.225,27.01875 C44.4499961,26.8312491 43.5500051,26.7375 42.525,26.7375 C41.5999954,26.7375 40.8500029,26.8937484 40.275,27.20625 C39.6999971,27.5187516 39.4125,27.9999967 39.4125,28.65 C39.4125,28.9750016 39.4687494,29.2624987 39.58125,29.5125 C39.6937506,29.7625012 39.8874986,29.9937489 40.1625,30.20625 C40.4375014,30.4187511 40.7999978,30.6312489 41.25,30.84375 C41.7000023,31.0562511 42.2499968,31.2749989 42.9,31.5 C43.9750054,31.900002 44.8874963,32.2937481 45.6375,32.68125 C46.3875038,33.0687519 47.0062476,33.5062476 47.49375,33.99375 C47.9812524,34.4812524 48.3374989,35.0374969 48.5625,35.6625 C48.7875011,36.2875031 48.9,37.0374956 48.9,37.9125 C48.9,39.7875094 48.2062569,41.2062452 46.81875,42.16875 C45.4312431,43.1312548 43.4500129,43.6125 40.875,43.6125 C39.1499914,43.6125 37.7625053,43.4687514 36.7125,43.18125 C35.6624948,42.8937486 34.9250021,42.6625009 34.5,42.4875 L35.2875,38.7 C35.9625034,38.9750014 36.7687453,39.2374988 37.70625,39.4875 C38.6437547,39.7375012 39.712494,39.8625 40.9125,39.8625 Z"/>
  </defs>
  <g fill="none" fill-rule="evenodd">
    <path fill="#43C9FF" fill-rule="nonzero" d="M3.75,3.75 L3.75,56.25 L56.25,56.25 L56.25,3.75 L3.75,3.75 Z M0,0 L60,0 L60,60 L0,60 L0,0 Z"/>
    <mask id="ps-b" fill="#fff">
      <use xlink:href="#ps-a"/>
    </mask>
    <use fill="#FFF" xlink:href="#ps-a"/>
    <rect width="60" height="60" fill="#43C9FF" mask="url(#ps-b)"/>
  </g>
</svg>

<svg xmlns="http://www.w3.org/2000/svg" xmlns:xlink="http://www.w3.org/1999/xlink" width="60" height="60" xmlns:v="https://vecta.io/nano"><defs><path id="A" d="M21.15 16.875c3.775 0 6.67.687 8.68 2.063s3.02 3.525 3.02 6.45c0 1.525-.27 2.83-.806 3.92s-1.32 1.975-2.344 2.663-2.275 1.194-3.75 1.52-3.162.488-5.062.488h-2.363v9.15H13.8V17.513c1.1-.25 2.32-.42 3.656-.506l3.694-.13zm.338 4.087l-2.963.113v8.85h2.288c2.275 0 4.025-.32 5.25-.956s1.837-1.844 1.837-3.62c0-.85-.162-1.562-.487-2.138a3.5 3.5 0 0 0-1.35-1.35c-.575-.325-1.256-.556-2.044-.694s-1.63-.206-2.53-.206zm19.425 18.9c1.2 0 2.075-.144 2.625-.43s.825-.78.825-1.48c0-.65-.294-1.187-.88-1.613s-1.556-.887-2.906-1.387a22.96 22.96 0 0 1-2.269-.956c-.688-.338-1.28-.73-1.78-1.18s-.894-.994-1.18-1.63-.43-1.42-.43-2.344c0-1.8.662-3.22 1.987-4.256s3.125-1.556 5.4-1.556c1.15 0 2.25.106 3.3.32s1.837.42 2.362.62l-.825 3.675c-.5-.225-1.137-.43-1.913-.62s-1.675-.28-2.7-.28c-.925 0-1.675.156-2.25.47s-.862.794-.862 1.444c0 .325.056.612.17.863s.306.48.58.694.637.425 1.087.637 1 .43 1.65.656c1.075.4 1.987.794 2.738 1.18s1.37.825 1.856 1.313a4.49 4.49 0 0 1 1.069 1.669c.225.625.337 1.375.337 2.25 0 1.875-.694 3.294-2.08 4.256s-3.37 1.444-5.944 1.444c-1.725 0-3.112-.144-4.163-.43l-2.212-.694.788-3.787c.675.275 1.48.537 2.42.787s2.006.375 3.206.375z"/></defs><g fill-rule="evenodd"><path fill="#43c9ff" fill-rule="nonzero" d="M3.75 3.75v52.5h52.5V3.75H3.75zM0 0h60v60H0V0z"/><mask id="B" fill="#fff"><use xlink:href="#A"/></mask><use fill="#fff" xlink:href="#A"/><path fill="#43c9ff" mask="url(#B)" d="M0 0h60v60H0z"/></g></svg>
